dist/assets/calendly-BumIoQnc.svg

<svg width="38" height="38" viewBox="0 0 38 38" fill="none" xmlns="http://www.w3.org/2000/svg">
<g clip-path="url(#clip0_214_3875)">
<g clip-path="url(#clip1_214_3875)">
<mask id="mask0_214_3875" style="mask-type:luminance" maskUnits="userSpaceOnUse" x="0" y="1" width="37" height="36">
<path d="M36.2632 1.84912H0.76001V36.6943H36.2632V1.84912Z" fill="white"/>
</mask>
<g mask="url(#mask0_214_3875)">
<path d="M24.8536 24.4431C23.7479 25.4245 22.3682 26.646 19.8596 26.646H18.3637C16.5503 26.646 14.9015 25.9878 13.7215 24.7929C12.569 23.6261 11.9342 22.0286 11.9342 20.2946V18.2451C11.9342 16.5111 12.569 14.9137 13.7215 13.7468C14.9015 12.5519 16.5503 11.8938 18.3637 11.8938H19.8596C22.3682 11.8938 23.7466 13.1152 24.8536 14.0968C26.0016 15.1147 26.9935 15.9933 29.6355 15.9933C30.0385 15.9934 30.4409 15.9613 30.8388 15.8971C30.8388 15.8893 30.8335 15.8822 30.8303 15.8743C30.6719 15.4813 30.4861 15.0999 30.2742 14.7328L28.5076 11.6726C27.7112 10.2932 26.5657 9.14771 25.1862 8.35125C23.8068 7.55479 22.242 7.13542 20.6492 7.13525H17.1154C15.5226 7.13542 13.9579 7.55479 12.5785 8.35125C11.1991 9.14771 10.0535 10.2932 9.25705 11.6726L7.4905 14.7328C6.69414 16.1124 6.2749 17.6771 6.2749 19.2699C6.2749 20.8627 6.69414 22.4275 7.4905 23.8069L9.25705 26.8672C10.0536 28.2465 11.1991 29.3918 12.5785 30.1883C13.9579 30.9846 15.5227 31.4038 17.1154 31.4038H20.6492C22.242 31.4038 23.8068 30.9846 25.1861 30.1883C26.5656 29.3918 27.7111 28.2465 28.5076 26.8672L30.2742 23.8069C30.4861 23.44 30.6719 23.0585 30.8303 22.6654C30.8303 22.6576 30.8362 22.6505 30.8388 22.6427C30.4409 22.5785 30.0385 22.5463 29.6355 22.5464C26.9935 22.5464 26.0016 23.4252 24.8536 24.4431Z" fill="#006BFF"/>
<path d="M19.8596 13.7515H18.3637C15.6046 13.7515 13.7911 15.7223 13.7911 18.2453V20.2947C13.7911 22.8177 15.6046 24.7886 18.3637 24.7886H19.8596C23.8806 24.7886 23.5671 20.6909 29.6356 20.6909C30.2108 20.6903 30.785 20.7428 31.3507 20.8476C31.5347 19.805 31.5347 18.7382 31.3507 17.6956C30.785 17.8009 30.2108 17.8536 29.6356 17.8531C23.5651 17.8524 23.8806 13.7515 19.8596 13.7515Z" fill="#006BFF"/>
<path d="M34.8378 22.344C33.8034 21.588 32.6109 21.0764 31.3502 20.848C31.3502 20.8584 31.347 20.8688 31.3451 20.8785C31.2368 21.4832 31.0671 22.0751 30.8384 22.6451C31.8799 22.8062 32.8682 23.2129 33.7217 23.8314C33.7217 23.8406 33.7165 23.8497 33.7132 23.8594C33.2295 25.4302 32.4987 26.9137 31.5479 28.2544C30.6082 29.5825 29.467 30.7562 28.1658 31.7328C25.0156 34.1027 21.0835 35.1889 17.1635 34.7723C13.2436 34.3556 9.6277 32.4669 7.04611 29.4878C4.46452 26.5086 3.10951 22.661 3.25468 18.7216C3.39987 14.7822 5.03442 11.0446 7.8283 8.2636C9.72631 6.36701 12.0822 4.99299 14.6674 4.27476C17.2527 3.55653 19.9798 3.51846 22.5841 4.16424C25.1884 4.81003 27.5817 6.11774 29.5319 7.96062C31.4822 9.80349 32.9231 12.119 33.7152 14.6826C33.7185 14.6924 33.7211 14.7015 33.7236 14.7106C32.8695 15.3292 31.8806 15.7356 30.8384 15.8963C31.067 16.4669 31.2369 17.0592 31.3457 17.6642C31.3457 17.674 31.3457 17.6837 31.3502 17.6928C32.6111 17.4649 33.8037 16.9534 34.8378 16.1969C35.8323 15.4612 35.6397 14.6299 35.4883 14.1382C33.2969 7.01934 26.6698 1.84717 18.8341 1.84717C9.2124 1.84717 1.41187 9.6477 1.41187 19.2694C1.41187 28.8912 9.2124 36.6924 18.8341 36.6924C26.6698 36.6924 33.2969 31.5201 35.485 24.4032C35.6397 23.9115 35.8323 23.0802 34.8378 22.344Z" fill="#006BFF"/>
<path d="M30.8388 15.8935C30.4409 15.9577 30.0384 15.9899 29.6354 15.9898C26.9934 15.9898 26.0015 15.111 24.8536 14.0931C23.7478 13.1116 22.3683 11.8901 19.8596 11.8901H18.3636C16.5502 11.8901 14.9014 12.5484 13.7215 13.7432C12.569 14.91 11.9342 16.5075 11.9342 18.2416V20.291C11.9342 22.0251 12.569 23.6225 13.7215 24.7893C14.9014 25.9842 16.5502 26.6424 18.3636 26.6424H19.8596C22.3683 26.6424 23.7465 25.4209 24.8536 24.4394C26.0015 23.4215 26.9934 22.5428 29.6354 22.5428C30.0384 22.5426 30.4409 22.5749 30.8388 22.639C31.0675 22.069 31.2372 21.477 31.3455 20.8725C31.3455 20.8628 31.3493 20.8523 31.3506 20.8419C30.7849 20.7371 30.2108 20.6846 29.6354 20.6852C23.5651 20.6852 23.8805 24.7829 19.8596 24.7829H18.3636C15.6045 24.7829 13.7911 22.812 13.7911 20.289V18.2422C13.7911 15.7192 15.6045 13.7484 18.3636 13.7484H19.8596C23.8805 13.7484 23.567 17.8461 29.6354 17.8461C30.2108 17.8466 30.785 17.7939 31.3506 17.6887C31.3506 17.6796 31.3506 17.6698 31.3461 17.6601C31.2372 17.0555 31.0672 16.4637 30.8388 15.8935Z" fill="#0AE9EF"/>
<path d="M30.8388 15.8935C30.4409 15.9577 30.0384 15.9899 29.6354 15.9898C26.9934 15.9898 26.0015 15.111 24.8536 14.0931C23.7478 13.1116 22.3683 11.8901 19.8596 11.8901H18.3636C16.5502 11.8901 14.9014 12.5484 13.7215 13.7432C12.569 14.91 11.9342 16.5075 11.9342 18.2416V20.291C11.9342 22.0251 12.569 23.6225 13.7215 24.7893C14.9014 25.9842 16.5502 26.6424 18.3636 26.6424H19.8596C22.3683 26.6424 23.7465 25.4209 24.8536 24.4394C26.0015 23.4215 26.9934 22.5428 29.6354 22.5428C30.0384 22.5426 30.4409 22.5749 30.8388 22.639C31.0675 22.069 31.2372 21.477 31.3455 20.8725C31.3455 20.8628 31.3493 20.8523 31.3506 20.8419C30.7849 20.7371 30.2108 20.6846 29.6354 20.6852C23.5651 20.6852 23.8805 24.7829 19.8596 24.7829H18.3636C15.6045 24.7829 13.7911 22.812 13.7911 20.289V18.2422C13.7911 15.7192 15.6045 13.7484 18.3636 13.7484H19.8596C23.8805 13.7484 23.567 17.8461 29.6354 17.8461C30.2108 17.8466 30.785 17.7939 31.3506 17.6887C31.3506 17.6796 31.3506 17.6698 31.3461 17.6601C31.2372 17.0555 31.0672 16.4637 30.8388 15.8935Z" fill="#0AE9EF"/>
</g>
</g>
</g>
<defs>
<clipPath id="clip0_214_3875">
<rect width="37.023" height="37.023" fill="white" transform="translate(0 0.538574)"/>
</clipPath>
<clipPath id="clip1_214_3875">
<rect width="37.023" height="35.9341" fill="white" transform="translate(0 1.08252)"/>
</clipPath>
</defs>
</svg>

<svg xmlns="http://www.w3.org/2000/svg" width="38" height="38"><g clip-path="url(#a)"><g clip-path="url(#b)"><mask id="c" width="37" height="36" x="0" y="1" maskUnits="userSpaceOnUse" style="mask-type:luminance"><path d="M36.263 1.85H.76v34.844h35.503z"/></mask><g mask="url(#c)"><path d="M24.854 24.443c-1.106.981-2.486 2.203-4.994 2.203h-1.496c-1.814 0-3.463-.658-4.642-1.853-1.153-1.167-1.788-2.764-1.788-4.498v-2.05c0-1.734.635-3.331 1.788-4.498 1.18-1.195 2.828-1.853 4.642-1.853h1.496c2.508 0 3.887 1.221 4.994 2.203 1.148 1.018 2.14 1.896 4.782 1.896q.605 0 1.203-.096-.001-.011-.009-.023a9 9 0 0 0-.556-1.141l-1.766-3.06a9.07 9.07 0 0 0-7.859-4.538h-3.534a9.07 9.07 0 0 0-7.858 4.538l-1.766 3.06a9.07 9.07 0 0 0 0 9.074l1.766 3.06a9.08 9.08 0 0 0 7.858 4.537h3.534a9.07 9.07 0 0 0 7.859-4.537l1.766-3.06q.319-.55.556-1.142c0-.007.006-.014.009-.022a7.5 7.5 0 0 0-1.203-.097c-2.642 0-3.634.88-4.782 1.897"/><path d="M19.86 13.752h-1.496c-2.76 0-4.573 1.97-4.573 4.493v2.05c0 2.523 1.814 4.494 4.573 4.494h1.496c4.02 0 3.707-4.098 9.776-4.098q.864 0 1.715.157a9.1 9.1 0 0 0 0-3.152 9.3 9.3 0 0 1-1.715.157c-6.07 0-5.755-4.102-9.776-4.102"/><path d="M34.838 22.344a8.5 8.5 0 0 0-3.488-1.496q-.001.015-.005.03a9 9 0 0 1-.507 1.767 6.65 6.65 0 0 1 2.884 1.186q-.002.015-.009.028a15.5 15.5 0 0 1-2.165 4.395 15.7 15.7 0 0 1-3.382 3.479A15.565 15.565 0 0 1 7.828 8.263a15.573 15.573 0 0 1 25.896 6.448 6.65 6.65 0 0 1-2.886 1.185 9 9 0 0 1 .512 1.797 8.45 8.45 0 0 0 3.488-1.496c.994-.736.802-1.567.65-2.059-2.191-7.119-8.818-12.29-16.654-12.29-9.622 0-17.422 7.8-17.422 17.421 0 9.622 7.8 17.423 17.422 17.423 7.836 0 14.463-5.172 16.651-12.289.155-.491.347-1.323-.647-2.059"/><path d="M30.839 15.894q-.597.096-1.204.096c-2.642 0-3.634-.879-4.781-1.897-1.106-.981-2.486-2.203-4.994-2.203h-1.496c-1.814 0-3.463.658-4.642 1.853-1.153 1.167-1.788 2.765-1.788 4.499v2.049c0 1.734.635 3.331 1.788 4.498 1.18 1.195 2.828 1.853 4.642 1.853h1.496c2.508 0 3.887-1.221 4.994-2.203 1.148-1.017 2.14-1.896 4.781-1.896q.606 0 1.204.096c.229-.57.398-1.162.507-1.767q.001-.015.005-.03a9.4 9.4 0 0 0-1.716-.157c-6.07 0-5.754 4.098-9.775 4.098h-1.496c-2.76 0-4.573-1.971-4.573-4.494v-2.047c0-2.523 1.813-4.494 4.573-4.494h1.496c4.02 0 3.707 4.098 9.775 4.098q.866 0 1.716-.157.001-.015-.005-.029a9 9 0 0 0-.507-1.767"/><path d="M30.839 15.894q-.597.096-1.204.096c-2.642 0-3.634-.879-4.781-1.897-1.106-.981-2.486-2.203-4.994-2.203h-1.496c-1.814 0-3.463.658-4.642 1.853-1.153 1.167-1.788 2.765-1.788 4.499v2.049c0 1.734.635 3.331 1.788 4.498 1.18 1.195 2.828 1.853 4.642 1.853h1.496c2.508 0 3.887-1.221 4.994-2.203 1.148-1.017 2.14-1.896 4.781-1.896q.606 0 1.204.096c.229-.57.398-1.162.507-1.767q.001-.015.005-.03a9.4 9.4 0 0 0-1.716-.157c-6.07 0-5.754 4.098-9.775 4.098h-1.496c-2.76 0-4.573-1.971-4.573-4.494v-2.047c0-2.523 1.813-4.494 4.573-4.494h1.496c4.02 0 3.707 4.098 9.775 4.098q.866 0 1.716-.157.001-.015-.005-.029a9 9 0 0 0-.507-1.767"/></g></g></g><defs><clipPath id="a"><path d="M0 .539h37.023v37.023H0z"/></clipPath><clipPath id="b"><path d="M0 1.083h37.023v35.934H0z"/></clipPath></defs></svg>
